images/icon-linkedin.svg

<svg height="20" viewBox="0 0 20 20" width="20" xmlns="http://www.w3.org/2000/svg"><path d="m7.04872784 18.7736901h3.75138386v-6.3204875c0-.3383188.0245343-.6762983.1236868-.9175667.2710621-.6761286.8884812-1.3760108 1.9245068-1.3760108 1.3578483 0 1.9006493 1.0383706 1.9006493 2.5589389v6.0551261h3.7510454v-6.4891379c0-3.47684496-1.8505654-5.09429387-4.3188883-5.09429387-2.0238285 0-2.9123097 1.13491197-3.4057036 1.90741222h.0247036v-1.64171149h-3.75138386c.04923787 1.06178488 0 11.31773104 0 11.31773104m-3.95129633-12.86232434c1.30793365 0 2.12213504-.86988992 2.12213504-1.95542838-.02436513-1.11047971-.81420139-1.95593738-2.09743151-1.95593738-1.28339932 0-2.12213504.84545767-2.12213504 1.95593738 0 1.08553846.81403219 1.95542838 2.07289718 1.95542838zm1.87543811 1.54466116h-3.75121463v11.31773098h3.75121463z" fill="#fff" fill-rule="evenodd"/></svg>

<?xml version="1.0" encoding="UTF-8" standalone="no"?>
<svg width="20px" height="20px" viewBox="0 0 20 20" version="1.1" xmlns="http://www.w3.org/2000/svg" xmlns:xlink="http://www.w3.org/1999/xlink">
    <!-- Generator: Sketch 41 (35326) - http://www.bohemiancoding.com/sketch -->
    <title>icon-linkedin</title>
    <desc>Created with Sketch.</desc>
    <defs></defs>
    <g id="Page-1" stroke="none" stroke-width="1" fill="none" fill-rule="evenodd">
        <g id="icon-linkedin" fill="#FFFFFF">
            <path d="M7.04872784,18.7736901 L10.8001117,18.7736901 L10.8001117,12.4532026 C10.8001117,12.1148838 10.824646,11.7769043 10.9237985,11.5356359 C11.1948606,10.8595073 11.8122797,10.1596251 12.8483053,10.1596251 C14.2061536,10.1596251 14.7489546,11.1979957 14.7489546,12.718564 L14.7489546,18.7736901 L18.5,18.7736901 L18.5,12.2845522 C18.5,8.80770724 16.6494346,7.19025833 14.1811117,7.19025833 C12.1572832,7.19025833 11.268802,8.3251703 10.7754081,9.09767055 L10.8001117,9.09767055 L10.8001117,7.45595906 L7.04872784,7.45595906 C7.09796571,8.51774394 7.04872784,18.7736901 7.04872784,18.7736901 M3.09743151,5.91136576 C4.40536516,5.91136576 5.21956655,5.04147584 5.21956655,3.95593738 C5.19520142,2.84545767 4.40536516,2 3.12213504,2 C1.83873572,2 1,2.84545767 1,3.95593738 C1,5.04147584 1.81403219,5.91136576 3.07289718,5.91136576 L3.09743151,5.91136576 Z M4.97286962,7.45602692 L1.22165499,7.45602692 L1.22165499,18.7737579 L4.97286962,18.7737579 L4.97286962,7.45602692 Z"></path>
        </g>
    </g>
</svg>
